X:1
T:Broom O'er the Cowdenknowes
C:
M:2/2
L:1/8
Q:160
K:G
D6 E2 |D6 D2 |D C3 B, A,3 |G,6 D2 |
w: Oh, the broom, the bon-ny bon-ny broom, The
G6 G A |(B2 A2) (G2 F2) |(E8 |F8) |
w: broom o'er the Cow-_ den-_ knowes!_
G4 G A3 |B4 B2 A2 |G6 C2 |D8 |C4 C2 C2 |
w: Fain would I be in the North Coun-try, Herd-ing her
D4 (C B,3) |A,8 |
w: fath-ers_ ewes.

